X: 24
T:Hull's Victory
R:March
C:Trad
M:2/4
L:1/16
Q:300
K:D
A|"D" dAdf dAdf|"A7" fedc "D" d4EF|"D"A4 AB "A7"A2G2|FGEF "D" D2A2|
dAdf dAdf| "A7" e2e2 e2>d|"E7"dcBA ^GABG|"A7" A2A2 A2:|
A2|"D" dAde fedc|"G"B2G2 G2 cd|"Em7" edef gf"E7"ed|"A7" c2A2 A2 AA|
"D"dAdf dAdf| "A7" eAeg eAeg|"D"fedf "A7"edce|"D" d2d2 d2:|
